dist/img/advantages/07.svg

<?xml version="1.0" encoding="UTF-8"?> <svg xmlns="http://www.w3.org/2000/svg" width="300" height="300" viewBox="0 0 300 300" fill="none"> <path d="M113.427 105.071C116.376 88.9292 125.35 39.8066 129.824 10.8614C130.012 9.64494 129.66 8.40714 128.859 7.47234C128.058 6.5381 126.888 6 125.657 6H62.8784C61.7023 6 60.5801 6.49097 59.7816 7.35451C58.9837 8.21749 58.5826 9.37561 58.6746 10.5483C59.0976 15.9226 59.7833 21.7014 60.51 27.8186C63.4928 52.9432 67.5776 87.3531 58.2897 138.655C57.0575 145.461 56.8549 157.994 56.8375 170.488C54.9292 182.927 54 198.931 54 219.407C54 240.041 56.7028 257.622 61.8156 270.248C69.5258 289.289 81.0969 293.286 89.4462 293.286C112.305 293.286 124.892 267.048 124.892 219.406C124.892 179.127 121.361 155.678 113.47 143.785C112.224 130.489 111.262 117.547 112.602 109.608C112.654 109.307 112.948 107.699 113.427 105.071ZM66.3 142.053C71.557 142.925 79.0466 143.836 87.4313 143.836C92.9873 143.836 98.9311 143.42 104.865 142.341C104.966 143.443 105.07 144.552 105.176 145.668C105.176 145.669 105.176 145.669 105.176 145.669C105.178 145.693 105.18 145.717 105.182 145.74C105.228 146.226 105.275 146.712 105.322 147.201C101.617 152.885 94.862 162.266 85.7036 170.907C82.1092 167.649 79.0259 164.29 76.4768 161.193C71.7068 155.396 68.182 149.8 65.919 145.814C66.0279 144.441 66.1541 143.179 66.3 142.053ZM92.4588 176.394C95.1134 173.849 97.7225 171.11 100.274 168.185C102.627 165.488 104.726 162.867 106.58 160.419C107.343 168.839 107.954 177.12 107.954 184.339C107.954 184.465 107.954 184.59 107.954 184.717C102.208 182.628 97.0323 179.699 92.4588 176.394ZM107.924 193.816C107.817 205.287 107.316 215.754 104.95 223.395C101.971 233.014 96.4892 237.119 86.6205 237.119C76.7517 237.119 71.2703 233.014 68.2914 223.395C65.9981 215.988 65.4561 205.928 65.3276 194.87C72.264 191.948 79.1443 187.723 85.8052 182.291C92.1619 187.107 99.5298 191.233 107.924 193.816ZM65.2715 170.802C65.2715 170.802 65.2715 170.802 65.2715 170.801C65.276 167.513 65.2934 164.176 65.3394 160.938C68.9557 165.961 73.5276 171.474 79.0876 176.638C74.8591 179.978 70.2395 183.006 65.2861 185.427C65.2861 185.064 65.2861 184.703 65.2861 184.339C65.2861 182.562 65.2822 180.705 65.2788 178.796C65.2732 176.203 65.2681 173.514 65.2715 170.802ZM113.009 225.888C113.014 225.869 113.019 225.849 113.025 225.83C113.206 225.244 113.373 224.643 113.536 224.035C113.571 223.894 113.61 223.751 113.647 223.607C113.803 223 113.951 222.383 114.089 221.755C114.12 221.616 114.149 221.474 114.179 221.334C114.304 220.75 114.422 220.16 114.533 219.56C114.551 219.462 114.57 219.366 114.588 219.268C114.707 218.61 114.816 217.94 114.919 217.263C114.946 217.089 114.973 216.914 114.998 216.739C115.096 216.067 115.189 215.388 115.274 214.699C115.292 214.56 115.307 214.418 115.324 214.277C115.397 213.662 115.465 213.039 115.529 212.411C115.545 212.25 115.562 212.091 115.578 211.93C115.646 211.228 115.708 210.518 115.764 209.802C115.781 209.599 115.796 209.395 115.811 209.191C115.865 208.466 115.916 207.737 115.961 206.999C115.969 206.879 115.974 206.756 115.981 206.635C116.02 205.969 116.055 205.298 116.087 204.621C116.097 204.412 116.107 204.203 116.116 203.992C116.144 203.35 116.171 202.705 116.193 202.054C116.37 207.456 116.459 213.236 116.459 219.405C116.459 239.083 113.827 284.851 89.4467 284.851C72.2242 284.851 64.5881 259.573 62.838 232.276C62.8593 232.316 62.8829 232.352 62.9048 232.393C63.1595 232.871 63.4232 233.336 63.6965 233.787C63.7509 233.877 63.807 233.966 63.8626 234.055C64.1375 234.498 64.4192 234.931 64.7115 235.348C64.7283 235.372 64.7446 235.398 64.762 235.422C65.0667 235.854 65.3843 236.267 65.7092 236.67C65.7754 236.752 65.841 236.835 65.9078 236.916C66.2293 237.305 66.5592 237.682 66.8993 238.045C66.9582 238.108 67.0193 238.168 67.0788 238.231C67.4093 238.575 67.7477 238.909 68.0955 239.229C68.1326 239.263 68.1685 239.299 68.2055 239.333C68.5747 239.667 68.9557 239.985 69.3446 240.293C69.4248 240.356 69.505 240.419 69.5858 240.481C69.9752 240.78 70.3725 241.068 70.781 241.341C70.841 241.381 70.9028 241.418 70.9634 241.457C71.3528 241.712 71.75 241.954 72.1568 242.184C72.2163 242.218 72.2741 242.254 72.3341 242.286C72.7673 242.526 73.2123 242.751 73.6656 242.964C73.7593 243.008 73.8542 243.052 73.949 243.095C74.4085 243.303 74.8754 243.503 75.3551 243.684C75.4084 243.705 75.4634 243.723 75.5167 243.743C75.9723 243.912 76.4381 244.069 76.9116 244.215C76.9936 244.24 77.0744 244.267 77.1574 244.292C77.6562 244.44 78.1657 244.573 78.6836 244.694C78.7908 244.72 78.8985 244.743 79.0062 244.767C79.5387 244.886 80.078 244.995 80.6307 245.086C80.6671 245.092 80.7042 245.096 80.7406 245.102C81.2742 245.189 81.8191 245.26 82.3718 245.321C82.4767 245.333 82.5805 245.346 82.686 245.357C83.251 245.414 83.8261 245.458 84.4114 245.49C84.5292 245.496 84.6482 245.5 84.7666 245.506C85.3754 245.533 85.9915 245.552 86.6221 245.552C87.9026 245.552 89.1387 245.495 90.331 245.382C101.858 244.286 109.295 237.879 113.009 225.888ZM105.131 103.555C104.639 106.248 104.339 107.895 104.286 108.203C104.286 108.203 104.286 108.203 104.286 108.204C103.165 114.844 103.4 123.749 104.14 133.706C90.3423 136.363 75.9903 134.87 67.7269 133.52C75.7372 84.6356 71.8 51.3806 68.885 26.8243C68.3722 22.5038 67.8795 18.3544 67.4901 14.4345H120.726C116.078 43.6272 107.914 88.3154 105.131 103.555Z" fill="#ffffff"></path> <path d="M274.096 185.025C271.508 181.796 268.327 178.099 264.959 174.185C256.861 164.775 246.784 153.063 238.452 140.358C228.543 125.248 226.6 105.686 227.946 93.525C228.288 90.4372 227.291 87.3483 225.21 85.05C223.138 82.7607 220.19 81.4937 217.086 81.5027L193.592 81.7704C191.854 81.7827 190.264 82.396 189.019 83.4144C184.351 82.0189 177.526 77.5615 172.329 64.0501C169.432 56.5167 160.906 39.514 146.986 13.5124L145.876 11.4419C144.775 9.39107 142.22 8.61954 140.166 9.72043C138.114 10.8219 137.343 13.3783 138.445 15.4308L139.55 17.494C153.111 42.8257 161.723 59.972 164.457 67.0784C165.832 70.6526 167.335 73.7269 168.915 76.3714C167.492 80.2127 165.169 86.216 162.279 92.7293C157.828 102.761 153.494 110.734 149.504 116.28C144.49 109.62 138.291 101.392 130.77 91.4191C129.368 89.5591 126.724 89.1893 124.864 90.591C123.004 91.9931 122.634 94.6371 124.036 96.4971C144.961 124.246 155.699 138.53 158.856 142.811C163.576 149.211 176.834 159.135 198.256 172.308C199.036 173.526 200.034 174.605 201.212 175.46L249.491 210.533C252.625 212.853 256.375 214.022 260.131 214.022C263.507 214.022 266.887 213.078 269.827 211.175C274.071 208.431 276.968 203.996 277.775 199.007C278.581 194.039 277.239 188.943 274.096 185.025ZM154.895 123.445C163.31 112.69 170.864 95.2375 175.094 84.4132C179.01 88.3123 182.967 90.353 186.281 91.3967C186.279 91.4865 186.279 91.5757 186.277 91.6655C186.262 92.4617 186.25 93.2562 186.243 94.0474C186.243 94.0535 186.243 94.0597 186.243 94.0659C186.236 94.8778 186.235 95.6863 186.237 96.4927C186.237 96.6453 186.238 96.7979 186.238 96.9505C186.245 98.5575 186.269 100.153 186.309 101.736C186.312 101.875 186.316 102.015 186.319 102.154C186.362 103.749 186.42 105.33 186.492 106.897C186.498 107.017 186.503 107.138 186.509 107.259C186.584 108.838 186.674 110.401 186.777 111.947C186.784 112.054 186.791 112.16 186.798 112.266C186.904 113.824 187.023 115.364 187.154 116.886C187.162 116.975 187.169 117.064 187.177 117.153C187.262 118.128 187.352 119.095 187.446 120.054C183.231 125.979 176.066 133.775 165.632 137.788C164.041 135.63 160.57 130.992 154.895 123.445ZM172.306 144.328C179.19 141.056 184.678 136.516 188.887 132.008C189.042 133.092 189.202 134.161 189.364 135.214C189.37 135.249 189.375 135.285 189.381 135.321C189.594 136.7 189.814 138.052 190.039 139.372C190.044 139.401 190.048 139.43 190.053 139.458C190.278 140.78 190.508 142.071 190.74 143.33C190.745 143.357 190.75 143.385 190.755 143.412C190.872 144.042 190.989 144.665 191.107 145.279C191.108 145.285 191.109 145.291 191.11 145.298C191.226 145.903 191.343 146.5 191.459 147.088C191.465 147.113 191.469 147.138 191.474 147.163C191.591 147.753 191.709 148.335 191.827 148.908C191.832 148.934 191.838 148.959 191.843 148.984C191.956 149.536 192.07 150.081 192.183 150.616C192.189 150.646 192.196 150.675 192.202 150.704C192.319 151.254 192.435 151.795 192.551 152.328C192.559 152.36 192.565 152.392 192.573 152.424C192.683 152.929 192.793 153.426 192.903 153.914C192.911 153.95 192.919 153.986 192.927 154.022C193.041 154.524 193.153 155.018 193.265 155.504C193.276 155.552 193.288 155.6 193.299 155.648C193.402 156.095 193.505 156.534 193.607 156.965C193.618 157.01 193.629 157.057 193.639 157.103C193.747 157.555 193.853 157.997 193.959 158.431C193.974 158.497 193.99 158.561 194.006 158.626C194.101 159.014 194.195 159.397 194.289 159.771C194.298 159.806 194.307 159.844 194.315 159.879C184.863 153.818 177.411 148.55 172.306 144.328ZM269.45 197.66C269.017 200.337 267.525 202.621 265.249 204.093C261.966 206.215 257.651 206.079 254.48 203.731L206.169 168.636C205.739 168.323 205.4 167.92 205.172 167.453C205.17 167.448 205.168 167.442 205.166 167.437C205.135 167.372 205.116 167.307 205.089 167.241C205.052 167.15 205.01 167.061 204.982 166.965C204.108 164.049 202.603 158.692 201.008 151.532C201.006 151.519 201.003 151.507 201 151.495C200.927 151.167 200.854 150.834 200.78 150.498C200.777 150.484 200.774 150.47 200.771 150.456C200.699 150.127 200.627 149.794 200.555 149.458C200.55 149.435 200.545 149.413 200.54 149.39C200.47 149.058 200.398 148.723 200.327 148.384C200.322 148.356 200.315 148.329 200.31 148.301C200.241 147.972 200.172 147.639 200.103 147.304C200.094 147.264 200.086 147.225 200.078 147.185C200.011 146.858 199.944 146.527 199.877 146.194C199.867 146.144 199.856 146.096 199.847 146.046C199.782 145.722 199.717 145.394 199.652 145.064C199.64 145.004 199.628 144.945 199.616 144.885C199.552 144.56 199.489 144.232 199.425 143.902C199.412 143.835 199.399 143.77 199.386 143.703C199.322 143.37 199.258 143.034 199.195 142.696C199.183 142.633 199.171 142.571 199.16 142.507C199.096 142.166 199.032 141.822 198.969 141.476C198.957 141.412 198.945 141.349 198.933 141.285C198.871 140.94 198.808 140.592 198.745 140.243C198.734 140.175 198.721 140.109 198.71 140.042C198.648 139.699 198.588 139.354 198.528 139.008C198.514 138.928 198.5 138.849 198.486 138.769C198.427 138.43 198.369 138.087 198.311 137.744C198.297 137.657 198.281 137.57 198.267 137.483C198.209 137.137 198.151 136.79 198.094 136.44C198.08 136.353 198.065 136.267 198.051 136.18C197.995 135.835 197.939 135.487 197.884 135.139C197.868 135.043 197.853 134.947 197.838 134.852C197.782 134.502 197.728 134.15 197.673 133.797C197.659 133.702 197.644 133.608 197.629 133.512C197.576 133.163 197.523 132.81 197.47 132.457C197.454 132.352 197.439 132.249 197.423 132.144C197.372 131.798 197.322 131.45 197.271 131.1C197.255 130.987 197.239 130.873 197.223 130.759C197.173 130.413 197.124 130.065 197.076 129.716C197.06 129.598 197.043 129.48 197.027 129.361C196.979 129.01 196.931 128.656 196.884 128.302C196.868 128.186 196.852 128.069 196.837 127.952C196.79 127.595 196.744 127.237 196.698 126.878C196.683 126.758 196.667 126.639 196.652 126.519C196.607 126.164 196.563 125.808 196.52 125.45C196.504 125.322 196.488 125.195 196.472 125.067C196.429 124.711 196.387 124.353 196.346 123.994C196.33 123.865 196.315 123.735 196.3 123.605C196.259 123.246 196.218 122.884 196.178 122.522C196.163 122.389 196.149 122.258 196.134 122.125C196.095 121.766 196.057 121.406 196.018 121.046C196.004 120.906 195.989 120.767 195.975 120.628C195.937 120.266 195.901 119.902 195.865 119.537C195.851 119.399 195.837 119.26 195.823 119.12C195.788 118.756 195.753 118.391 195.719 118.025C195.705 117.882 195.692 117.74 195.679 117.597C195.645 117.232 195.613 116.865 195.581 116.498C195.568 116.35 195.556 116.203 195.543 116.054C195.512 115.693 195.482 115.33 195.452 114.965C195.44 114.81 195.427 114.655 195.415 114.5C195.386 114.138 195.359 113.776 195.332 113.412C195.32 113.252 195.308 113.091 195.296 112.93C195.27 112.573 195.245 112.215 195.22 111.856C195.208 111.687 195.197 111.517 195.186 111.347C195.162 110.992 195.14 110.635 195.117 110.278C195.107 110.103 195.096 109.928 195.085 109.753C195.064 109.4 195.044 109.046 195.025 108.692C195.015 108.512 195.005 108.331 194.995 108.15C194.977 107.797 194.959 107.443 194.941 107.088C194.932 106.903 194.923 106.719 194.915 106.534C194.899 106.184 194.883 105.831 194.869 105.479C194.861 105.288 194.853 105.097 194.845 104.906C194.832 104.558 194.819 104.208 194.806 103.858C194.8 103.661 194.793 103.464 194.786 103.267C194.775 102.921 194.765 102.574 194.755 102.227C194.75 102.023 194.744 101.82 194.739 101.616C194.731 101.275 194.723 100.934 194.716 100.593C194.712 100.38 194.708 100.167 194.704 99.9547C194.698 99.6163 194.693 99.2774 194.688 98.938C194.685 98.7214 194.682 98.5048 194.68 98.2876C194.677 97.9543 194.674 97.6205 194.672 97.2866C194.671 97.0588 194.67 96.831 194.67 96.6026C194.668 96.2755 194.668 95.9478 194.669 95.6201C194.67 95.385 194.67 95.1494 194.671 94.9137C194.673 94.5933 194.675 94.2729 194.678 93.9514C194.68 93.7045 194.683 93.4576 194.686 93.2102C194.69 92.8971 194.695 92.5834 194.7 92.2692C194.705 92.0156 194.709 91.7614 194.715 91.5072C194.721 91.1986 194.728 90.8895 194.736 90.5803C194.74 90.4512 194.743 90.3222 194.747 90.1931L217.181 89.9384C217.191 89.9378 217.201 89.9378 217.21 89.9378C218.119 89.9378 218.694 90.4221 218.958 90.7133C219.228 91.0118 219.667 91.6542 219.562 92.598C217.989 106.8 220.273 128.02 231.398 144.985C240.032 158.149 250.308 170.092 258.565 179.688C261.884 183.545 265.019 187.188 267.516 190.302C269.193 192.392 269.88 195.005 269.45 197.66Z" fill="#ffffff"></path> </svg>

<svg xmlns="http://www.w3.org/2000/svg" width="300" height="300" fill="none"><path d="M113.427 105.071c2.949-16.142 11.923-65.264 16.397-94.21A4.218 4.218 0 00125.657 6H62.878a4.217 4.217 0 00-4.203 4.548c.423 5.375 1.108 11.153 1.835 17.27 2.983 25.125 7.068 59.535-2.22 110.837-1.233 6.806-1.435 19.339-1.453 31.833C54.93 182.927 54 198.931 54 219.407c0 20.634 2.703 38.215 7.816 50.841 7.71 19.041 19.28 23.038 27.63 23.038 22.859 0 35.446-26.238 35.446-73.88 0-40.279-3.531-63.728-11.422-75.621-1.246-13.296-2.208-26.238-.868-34.177.052-.301.346-1.909.825-4.537zM66.3 142.053c5.257.872 12.747 1.783 21.131 1.783 5.556 0 11.5-.416 17.434-1.495.101 1.102.205 2.211.311 3.327v.001l.006.071.14 1.461c-3.705 5.684-10.46 15.065-19.618 23.706-3.595-3.258-6.678-6.617-9.227-9.714-4.77-5.797-8.295-11.393-10.558-15.379a77.03 77.03 0 01.381-3.761zm26.159 34.341a127.224 127.224 0 007.815-8.209 144.61 144.61 0 006.306-7.766c.763 8.42 1.374 16.701 1.374 23.92v.378c-5.746-2.089-10.922-5.018-15.495-8.323zm15.465 17.422c-.107 11.471-.608 21.938-2.974 29.579-2.979 9.619-8.46 13.724-18.33 13.724-9.868 0-15.35-4.105-18.329-13.724-2.293-7.407-2.835-17.467-2.963-28.525 6.936-2.922 13.816-7.147 20.477-12.579 6.357 4.816 13.725 8.942 22.119 11.525zm-42.653-23.014v-.001c.005-3.288.022-6.625.068-9.863 3.617 5.023 8.189 10.536 13.749 15.7-4.229 3.34-8.848 6.368-13.802 8.789v-1.088c0-1.777-.004-3.634-.007-5.543-.006-2.593-.01-5.282-.007-7.994zm47.738 55.086l.016-.058c.181-.586.348-1.187.511-1.795.035-.141.074-.284.111-.428a53.99 53.99 0 00.442-1.852c.031-.139.06-.281.09-.421.125-.584.243-1.174.354-1.774l.055-.292a72.906 72.906 0 00.41-2.529c.098-.672.191-1.351.276-2.04.018-.139.033-.281.05-.422.073-.615.141-1.238.205-1.866l.049-.481a115.459 115.459 0 00.233-2.739c.054-.725.105-1.454.15-2.192.008-.12.013-.243.02-.364.039-.666.074-1.337.106-2.014l.029-.629c.028-.642.055-1.287.077-1.938.177 5.402.266 11.182.266 17.351 0 19.678-2.632 65.446-27.012 65.446-17.223 0-24.859-25.278-26.609-52.575.021.04.045.076.067.117.255.478.518.943.791 1.394l.167.268c.275.443.556.876.849 1.293l.05.074c.305.432.622.845.947 1.248.066.082.132.165.199.246.321.389.651.766.991 1.129l.18.186c.33.344.669.678 1.017.998.037.034.072.07.11.104.369.334.75.652 1.139.96l.24.188c.39.299.788.587 1.196.86.06.04.122.077.182.116.39.255.787.497 1.194.727.06.034.117.07.177.102a22.434 22.434 0 001.615.809c.46.208.926.408 1.406.589.053.021.108.039.162.059.455.169.921.326 1.395.472.082.025.162.052.245.077a26.81 26.81 0 001.527.402c.107.026.215.049.322.073a29.13 29.13 0 001.625.319l.11.016c.533.087 1.078.158 1.63.219l.315.036c.565.057 1.14.101 1.725.133l.356.016a39.31 39.31 0 005.564-.124c11.527-1.096 18.964-7.503 22.678-19.494zm-7.878-122.333c-.492 2.693-.792 4.34-.845 4.648v.001c-1.121 6.64-.886 15.545-.146 25.502-13.798 2.657-28.15 1.164-36.413-.186 8.01-48.884 4.073-82.14 1.158-106.696-.513-4.32-1.006-8.47-1.395-12.39h53.236c-4.648 29.193-12.812 73.881-15.595 89.121z" fill="#fff"/><path d="M274.096 185.025c-2.588-3.229-5.769-6.926-9.137-10.84-8.098-9.41-18.175-21.122-26.507-33.827-9.909-15.11-11.852-34.672-10.506-46.833a10.852 10.852 0 00-2.736-8.475c-2.072-2.29-5.02-3.556-8.124-3.547l-23.494.267a7.275 7.275 0 00-4.573 1.644c-4.668-1.395-11.493-5.853-16.69-19.364-2.897-7.533-11.423-24.536-25.343-50.538l-1.11-2.07a4.218 4.218 0 00-7.431 3.989l1.105 2.063c13.561 25.332 22.173 42.478 24.907 49.584 1.375 3.575 2.878 6.649 4.458 9.293a287.875 287.875 0 01-6.636 16.358c-4.451 10.032-8.785 18.005-12.775 23.551-5.014-6.66-11.213-14.888-18.734-24.86a4.217 4.217 0 10-6.734 5.077c20.925 27.749 31.663 42.033 34.82 46.314 4.72 6.4 17.978 16.324 39.4 29.497a11.657 11.657 0 002.956 3.152l48.279 35.073a17.875 17.875 0 0010.64 3.489c3.376 0 6.756-.944 9.696-2.847a17.921 17.921 0 007.948-12.168 17.818 17.818 0 00-3.679-13.982zm-119.201-61.58c8.415-10.755 15.969-28.207 20.199-39.032 3.916 3.9 7.873 5.94 11.187 6.984l-.004.268c-.015.797-.027 1.591-.034 2.382v.019c-.007.812-.008 1.62-.006 2.427l.001.458c.007 1.607.031 3.202.071 4.785l.01.418c.043 1.595.101 3.176.173 4.743l.017.362c.075 1.579.165 3.142.268 4.688l.021.319c.106 1.558.225 3.098.356 4.62l.023.267c.085.975.175 1.942.269 2.901-4.215 5.925-11.38 13.721-21.814 17.734-1.591-2.158-5.062-6.796-10.737-14.343zm17.411 20.883c6.884-3.272 12.372-7.812 16.581-12.32.155 1.084.315 2.153.477 3.206l.017.107c.213 1.379.433 2.731.658 4.051l.014.086c.225 1.322.455 2.613.687 3.872l.015.082a304.823 304.823 0 00.704 3.676l.015.075c.117.59.235 1.172.353 1.745l.016.076c.113.552.227 1.097.34 1.632l.019.088c.117.55.233 1.091.349 1.624l.022.096a211.175 211.175 0 00.354 1.598c.114.502.226.996.338 1.482l.034.144a228.384 228.384 0 00.66 2.783l.047.195a194.135 194.135 0 00.309 1.253c-9.452-6.061-16.904-11.329-22.009-15.551zm97.144 53.332a9.35 9.35 0 01-4.201 6.433c-3.283 2.122-7.598 1.986-10.769-.362l-48.311-35.095a3.192 3.192 0 01-.997-1.183l-.006-.016c-.031-.065-.05-.13-.077-.196-.037-.091-.079-.18-.107-.276-.874-2.916-2.379-8.273-3.974-15.433l-.008-.037-.22-.997-.009-.042a234.71 234.71 0 01-.216-.998l-.015-.068-.213-1.006-.017-.083a283.353 283.353 0 01-.433-2.107c-.01-.05-.021-.098-.03-.148a285.9 285.9 0 01-.195-.982l-.036-.179-.191-.983-.039-.199c-.064-.333-.128-.669-.191-1.007l-.035-.189c-.064-.341-.128-.685-.191-1.031l-.036-.191-.188-1.042-.035-.201c-.062-.343-.122-.688-.182-1.034l-.042-.239c-.059-.339-.117-.682-.175-1.025l-.044-.261c-.058-.346-.116-.693-.173-1.043l-.043-.26-.167-1.041-.046-.287c-.056-.35-.11-.702-.165-1.055l-.044-.285-.159-1.055-.047-.313-.152-1.044-.048-.341c-.05-.346-.099-.694-.147-1.043l-.049-.355a273.36 273.36 0 01-.329-2.483l-.046-.359c-.045-.355-.089-.711-.132-1.069l-.048-.383a166.537 166.537 0 01-.172-1.462 297.79 297.79 0 01-.122-1.083l-.044-.397-.116-1.079-.043-.418a174.953 174.953 0 01-.152-1.508 340.429 340.429 0 01-.144-1.523c-.034-.365-.066-.732-.098-1.099l-.038-.444-.091-1.089-.037-.465a184.91 184.91 0 01-.083-1.088l-.036-.482-.076-1.074-.034-.509c-.024-.355-.046-.712-.069-1.069l-.032-.525c-.021-.353-.041-.707-.06-1.061l-.03-.542-.054-1.062-.026-.554c-.016-.35-.032-.703-.046-1.055l-.024-.573-.039-1.048-.02-.591-.031-1.04-.016-.611-.023-1.023-.012-.638-.016-1.017-.008-.65-.008-1.001-.002-.684c-.002-.328-.002-.655-.001-.983l.002-.706.007-.963.008-.74.014-.942.015-.762.021-.927.011-.387 22.434-.255h.029c.909 0 1.484.484 1.748.775.27.299.709.941.604 1.885-1.573 14.202.711 35.422 11.836 52.387 8.634 13.164 18.91 25.107 27.167 34.703 3.319 3.857 6.454 7.5 8.951 10.614 1.677 2.09 2.364 4.703 1.934 7.358z" fill="#fff"/></svg>
